packages/katcn/src/icons/svg/arrow3-solid.svg

<svg width="24" height="25" viewBox="0 0 24 25" fill="none" xmlns="http://www.w3.org/2000/svg">
<path d="M9.8 19.696V16.496H3C1.9 16.496 1 15.496 1 14.396V10.196C1 8.996 1.9 8.096 3 8.096H9.8V4.896C9.8 2.696 12.2 1.496 13.8 2.896L22.1 10.296C23.3 11.296 23.3 13.196 22.1 14.296L13.7 21.696C12.2 23.096 9.8 21.896 9.8 19.696Z" fill="black"/>
</svg>

<svg xmlns="http://www.w3.org/2000/svg" fill="none" viewBox="0 0 24 25"><path fill="#000" d="M9.8 19.696v-3.2H3c-1.1 0-2-1-2-2.1v-4.2c0-1.2.9-2.1 2-2.1h6.8v-3.2c0-2.2 2.4-3.4 4-2l8.3 7.4c1.2 1 1.2 2.9 0 4l-8.4 7.4c-1.5 1.4-3.9.2-3.9-2"/></svg>
